assets/svg/gas/img_gas_per_20.svg

<svg width="26" height="26" viewBox="0 0 26 26" fill="none" xmlns="http://www.w3.org/2000/svg">
<path d="M21.2036 7.7L21.2145 7.68889L17.1564 3.55556L16 4.73333L18.3018 7.07778C17.2764 7.47778 16.5455 8.47778 16.5455 9.66667C16.5455 11.2 17.7673 12.4444 19.2727 12.4444C19.6655 12.4444 20.0255 12.3556 20.3636 12.2111V20.2222C20.3636 20.8333 19.8727 21.3333 19.2727 21.3333C18.6727 21.3333 18.1818 20.8333 18.1818 20.2222V15.2222C18.1818 14 17.2 13 16 13H14.9091V5.22222C14.9091 4 13.9273 3 12.7273 3H6.18182C4.98182 3 4 4 4 5.22222V23H14.9091V14.6667H16.5455V20.2222C16.5455 21.7556 17.7673 23 19.2727 23C20.7782 23 22 21.7556 22 20.2222V9.66667C22 8.9 21.6945 8.2 21.2036 7.7ZM12.7273 10.7778H6.18182V5.22222H12.7273V10.7778ZM19.2727 10.7778C18.6727 10.7778 18.1818 10.2778 18.1818 9.66667C18.1818 9.05556 18.6727 8.55556 19.2727 8.55556C19.8727 8.55556 20.3636 9.05556 20.3636 9.66667C20.3636 10.2778 19.8727 10.7778 19.2727 10.7778Z" fill="#BABCC4"/>
<path fill-rule="evenodd" clip-rule="evenodd" d="M22 19H20.3636V20.2222C20.3636 20.8333 19.8727 21.3333 19.2727 21.3333C18.6727 21.3333 18.1818 20.8333 18.1818 20.2222V19H16.5455V20.2222C16.5455 21.7548 17.766 22.9987 19.2704 23H19.275C20.7794 22.9987 22 21.7548 22 20.2222V19ZM14.9091 23V19H4V23H14.9091Z" fill="#E92222"/>
</svg>

<svg xmlns="http://www.w3.org/2000/svg" width="26" height="26" fill="none" viewBox="0 0 26 26"><path fill="#BABCC4" d="m21.204 7.7.01-.011-4.058-4.133L16 4.733l2.302 2.345a2.768 2.768 0 0 0-1.756 2.589c0 1.533 1.221 2.777 2.727 2.777.393 0 .753-.088 1.09-.233v8.011c0 .611-.49 1.111-1.09 1.111-.6 0-1.091-.5-1.091-1.11v-5C18.182 14 17.2 13 16 13h-1.09V5.222C14.91 4 13.926 3 12.726 3H6.182C4.982 3 4 4 4 5.222V23h10.91v-8.333h1.636v5.555c0 1.534 1.221 2.778 2.727 2.778C20.778 23 22 21.756 22 20.222V9.667c0-.767-.305-1.467-.796-1.967Zm-8.477 3.078H6.182V5.222h6.545v5.556Zm6.546 0c-.6 0-1.091-.5-1.091-1.111s.49-1.111 1.09-1.111c.6 0 1.092.5 1.092 1.11 0 .612-.491 1.112-1.091 1.112Z"/><path fill="#E92222" fill-rule="evenodd" d="M22 19h-1.636v1.222c0 .611-.491 1.111-1.091 1.111s-1.091-.5-1.091-1.11V19h-1.636v1.222c0 1.533 1.22 2.777 2.724 2.778h.005C20.779 22.999 22 21.755 22 20.222V19Zm-7.09 4v-4H4v4h10.91Z" clip-rule="evenodd"/></svg>
